X: 1703
T: Sen Ayrılık Çekmedin ki...
C: Ömer Dilek
O: Turkey
F: http://compmusic.upf.edu/node/140
N: suzinak-zirgule--sarki--duyek--sen_ayrilik--omer_dilek
N: makam= suzinak-zirgule
N: form= sarki
N: usul= duyek = 8/4
M: 8/4
L: 1/16
K: C _1/4B _7/8e _7/8A ^f
Q: 1/4=156
%%MIDI tuningsystem comma53
f2 g4 f2 e2 f2 e2 d2  | d2 e4 d2 dc Bc d4  | \
w:  ARANAĞME  |   | 
d2 e4 d2 c2 d2 c2 B2  | 
w:   | 
B2 d4 c2 BA AG G4  | f2 g4 f2 e2 f2 e2 d2  | \
w:   |  ARANAĞME  | 
d2 e4 d2 dc Bc d4  | 
w:   | 
d2 e4 d2 c2 d2 c2 B2  | B2 d4 c2 BA AG G4  | \
w:   |   | 
c2 d4 d2 d8  | z2 d4 e2 d2 c2 B4  | 
w:  Sen_ ay rı lık   |  çek me din  *  ki   | 
z4 c2 A2 G4 z4  | B2 c2 BA AG G4 z4  | \
w:  bi le sin    |  SAZ  | 
z2 c4 d2 d4 d4  | z2 e4 g2 f2 e2 d4  | 
w:  Aşk  şa râ bı   |  iç me din  *  ki   | 
d2 c2 B2 c2 d4 z4  | B2 c2 B2 c2 d4 z4  | \
w:  *  *  ya na sın    |  SAZ  | 
f4 g4 b2 a4 g2  | z2 f4 a2 g2 f2 e2 d2  | 
w:  Hiç  göz ya şı   |  dök me din  *  *  ki   | 
z2 f2 e2 ed d4 z4  | f2 g2 f2 e2 d4 z4  | \
w:  sev *  gi *  lim    |  SAZ  | 
B4 c2 _7/8d2 c6 B2  | z4 B2 c2 B2 A2 c4  | 
w:  Ay rı lı ğın   |  a cı sı nı   | 
z4 A2 B2 G4 z4  | G6 A2 B2 c2 d2 e2  | \
w:  bi le sin    |  SAZ  | 
f4 g4 b2 a4 g2  | z2 f4 a2 g2 f2 e2 d2  | 
w:  Hiç  göz ya şı   |  dök me din  *  *  ki   | 
z2 f2 e2 ed d4 z4  | f2 g2 f2 e2 d4 z4  | \
w:  sev *  gi *  lim    |  SAZ  | 
B4 c2 _7/8d2 c6 B2  | z4 B2 c2 B2 A2 c4  | 
w:  Ay rı lı ğın   |  a cı sı nı   | 
z4 A2 B2 G4 z4  | G2 c2 B2 A2 G4 z4  | \
w:  bi le sin    |  SAZ  | 
f2 g4 f2 e2 f2 e2 d2  | d2 e4 d2 dc Bc d4  | 
w:  ARANAĞME  |   | 
d2 e4 d2 c2 d2 c2 B2  | G2 A2 B2 c2 d2 e2 f2 g2  | \
w:   |   | 
z4 f2 g2 g2 g6  | g4 b4 a2 g4 f2  | 
w:  Ge ce le ri   |  yal nız lı ğın   | 
z2 e4 f2 g4 z4  | z2 e4 f2 g4 z4  | f4 g2 a2 g6 f2  | \
w:  ol du  mu    |  SAZ  |  Men di li ne   | 
f4 g4 f2 e4 d2  | z2 f4 e2 d4 z4  | 
w:  göz yaş la rın   |  dol du  mu    | 
z2 f4 e2 d8  | d2 e4 e2 e8  | z4 d2 e2 d4 c4  | \
w:  SAZ  |  O  gül  yü zün   |  sa ra rıp  da   | 
z2 d4 c2 B8  | z2 d4 c2 B8  | 
w:  sol du  mu    |  SAZ  | 
B4 c2 _7/8d2 c6 B2  | z4 B2 c2 B2 A2 c4  | \
w:  Ay rı lı ğın   |  a cı sı nı   | 
z4 A2 B2 G4 z4  | d2 e4 e2 e8  | z4 d2 e2 d4 c4  | 
w:  bi le sin    |  O  gül  yü zün   |  sa ra rıp  da   | 
z2 d4 c2 B8  | z2 d4 c2 B8  | B4 c2 _7/8d2 c6 B2  | \
w:  sol du  mu    |  SAZ  |  Ay rı lı ğın   | 
z4 B2 c2 B2 A2 c4  | z4 A2 B2 G4 z4  | 
w:  a cı sı nı   |  bi le sin    | 
|


